src/assets/icons/app-proposals.svg

<svg width="16" height="16" viewBox="0 0 16 16" fill="none" xmlns="http://www.w3.org/2000/svg">
<g clip-path="url(#clip0_8874_15385)">
<path fill-rule="evenodd" clip-rule="evenodd" d="M7.36551 0.0100239C7.34528 0.0146953 7.2852 0.0273298 7.23201 0.038107C7.09122 0.0665764 6.92263 0.139331 6.78619 0.230459C6.60761 0.349725 3.72447 3.24437 3.63628 3.39293C3.36674 3.84693 3.37369 4.42728 3.65397 4.87245C3.696 4.93923 4.34938 5.60631 5.54176 6.79987L7.36525 8.62519L5.8941 8.62579C5.08496 8.62612 4.36714 8.63359 4.29895 8.64238C4.12363 8.66498 3.96239 8.74585 3.83544 8.87486C3.6582 9.05495 3.59527 9.22435 3.60785 9.48749C3.61473 9.63123 3.62423 9.66904 3.68386 9.78969C3.757 9.93768 3.89762 10.0854 4.02941 10.1526C4.21621 10.2479 4.02865 10.2436 8 10.2436C11.9713 10.2436 11.7838 10.2479 11.9706 10.1526C12.1026 10.0853 12.243 9.9377 12.3164 9.78921C12.377 9.66658 12.3856 9.63178 12.392 9.48285C12.3972 9.36335 12.3906 9.28515 12.3693 9.21195C12.2829 8.91558 12.009 8.68209 11.7011 8.64238C11.6329 8.63359 11.118 8.62612 10.5569 8.62579L9.5367 8.62519L10.8906 7.26885C12.3156 5.84118 12.3731 5.7775 12.4697 5.5209C12.6044 5.16287 12.5844 4.7165 12.4188 4.38605C12.3934 4.33547 12.3371 4.24444 12.2935 4.18375C12.1963 4.04818 8.46476 0.320575 8.34943 0.243756C8.11577 0.0881307 7.89846 0.0196056 7.60459 0.00888361C7.49333 0.00481919 7.38574 0.00533421 7.36551 0.0100239ZM6.34479 2.91478L5.14026 4.11941L6.79083 5.76997L8.44139 7.42054L9.65056 6.21136L10.8598 5.00217L9.21383 3.35617C8.30857 2.45085 7.56371 1.71015 7.5586 1.71015C7.5535 1.71015 7.00727 2.25222 6.34479 2.91478ZM1.65509 6.18964C0.922165 6.32182 0.312134 6.86137 0.0915328 7.57252C-0.00187534 7.87365 0.000110977 7.78486 6.30629e-07 11.6434C-7.29336e-05 14.014 0.00629037 15.2747 0.0186676 15.3399C0.098871 15.7628 0.512173 16.0546 0.93239 15.985C1.10815 15.9559 1.26106 15.8745 1.38597 15.7435C1.50788 15.6157 1.57753 15.4768 1.60096 15.3148C1.6101 15.2516 1.61773 14.6434 1.61794 13.9632L1.6183 12.7264H8H14.3817L14.3818 13.9724C14.3819 14.6995 14.3894 15.2643 14.4 15.3287C14.4393 15.5692 14.6289 15.8181 14.8499 15.9193C15.3276 16.138 15.884 15.853 15.9813 15.3399C15.9937 15.2747 16.0001 14.014 16 11.6434C15.9999 7.78486 16.0019 7.87365 15.9085 7.57252C15.7214 6.96946 15.2473 6.47763 14.6553 6.27251C14.3724 6.17447 14.2361 6.16091 13.533 6.16084C12.9503 6.16078 12.8858 6.16389 12.7782 6.19712C12.2877 6.34865 12.0623 6.9123 12.313 7.36078C12.3809 7.4822 12.5328 7.62501 12.6604 7.68732C12.8184 7.76443 12.9558 7.77843 13.5593 7.77883C14.1339 7.77923 14.1609 7.78321 14.2602 7.88237C14.2894 7.91159 14.3286 7.96863 14.3471 8.00909C14.379 8.07853 14.3809 8.16749 14.3813 9.59531L14.3817 11.108H8H1.6183L1.61871 9.59531C1.61909 8.16749 1.62101 8.07853 1.65286 8.00909C1.69424 7.9189 1.77341 7.8375 1.8522 7.80421C1.89952 7.78422 2.10598 7.77907 2.8821 7.77859C3.41599 7.77826 3.90862 7.77079 3.97681 7.762C4.24059 7.728 4.48904 7.5481 4.60016 7.31065C4.81526 6.85098 4.56543 6.31742 4.07351 6.18581C3.94062 6.15026 1.85514 6.15356 1.65509 6.18964Z" fill="currentColor"/>
</g>
<defs>
<clipPath id="clip0_8874_15385">
<rect width="16" height="16" fill="white"/>
</clipPath>
</defs>
</svg>

<svg xmlns="http://www.w3.org/2000/svg" width="16" height="16" fill="none">
  <g clip-path="url(#a)">
    <path fill="currentColor" fill-rule="evenodd" d="M7.366.01a7.4 7.4 0 0 1-.134.028c-.14.029-.31.101-.446.192-.178.12-3.062 3.014-3.15 3.163a1.43 1.43 0 0 0 .018 1.48c.042.066.695.733 1.888 1.927l1.823 1.825h-1.47a50.06 50.06 0 0 0-1.596.017.79.79 0 0 0-.464.233c-.177.18-.24.35-.227.612a.58.58 0 0 0 .076.303.87.87 0 0 0 .345.363c.187.095 0 .09 3.971.09s3.784.005 3.97-.09a.87.87 0 0 0 .346-.364.574.574 0 0 0 .076-.306.808.808 0 0 0-.023-.271.822.822 0 0 0-.668-.57 25.058 25.058 0 0 0-1.144-.016h-1.02l1.354-1.357c1.425-1.428 1.482-1.492 1.579-1.748a1.484 1.484 0 0 0-.051-1.135 1.856 1.856 0 0 0-.126-.202C12.197 4.048 8.466.32 8.35.244a1.33 1.33 0 0 0-.744-.235 1.907 1.907 0 0 0-.24.001ZM6.345 2.915 5.14 4.119 6.79 5.77l1.651 1.65 1.21-1.209 1.209-1.209-1.646-1.646c-.905-.905-1.65-1.646-1.655-1.646-.006 0-.552.542-1.214 1.205ZM1.655 6.19A2.024 2.024 0 0 0 .092 7.573c-.094.3-.092.212-.092 4.07 0 2.371.006 3.632.019 3.697.08.423.493.715.913.645a.794.794 0 0 0 .454-.242.76.76 0 0 0 .215-.428c.01-.063.017-.672.017-1.352v-1.237h12.764v1.246c0 .728.007 1.292.018 1.357.04.24.229.49.45.59a.808.808 0 0 0 1.131-.58c.013-.064.02-1.325.019-3.696 0-3.858.002-3.77-.091-4.07a2.02 2.02 0 0 0-1.254-1.3c-.283-.099-.419-.112-1.122-.112-.583 0-.647.003-.755.036a.805.805 0 0 0-.465 1.164c.068.121.22.264.347.326.158.077.296.091.9.092.574 0 .6.004.7.103a.51.51 0 0 1 .087.127c.032.07.034.158.034 1.586v1.513H1.619V9.595c.001-1.428.003-1.516.035-1.586a.422.422 0 0 1 .2-.205c.047-.02.253-.025 1.03-.025.533 0 1.026-.008 1.094-.017a.824.824 0 0 0 .623-.451.806.806 0 0 0-.526-1.125c-.133-.036-2.219-.032-2.419.004Z" clip-rule="evenodd"/>
  </g>
  <defs>
    <clipPath id="a">
      <path fill="#fff" d="M0 0h16v16H0z"/>
    </clipPath>
  </defs>
</svg>
